X: 1
T: Gavotte
M: 12/8
L: 1/8
R: slide
K: Ador
|: AEAB c2 Bc dc A2 | AEAB c2 Bc dc A2 :|
| e2 Ae-eAcA BdcA  | e2 Ae-eAcA Bc A2 |
e2 Ae-eAcA BdcA  | e2 Ae-eAcA Bc A2 |
